ncols 40
nrows 40
xllcorner -116.7900
yllcorner 32.8200
cellsize 0.00050
NODATA_value -9999
1710.00 1709.40 1708.80 1708.20 1707.60 1707.00 1706.40 1705.80 1705.20 1704.60 1704.00 1703.40 1702.80 1702.20 1701.60 1701.00 1700.40 1699.80 1699.20 1698.60 1698.00 1697.40 1696.80 1696.20 1695.60 1695.00 1694.40 1693.80 1693.20 1692.60 1692.00 1691.40 1690.80 1690.20 1689.60 1689.00 1688.40 1687.80 1687.20 1686.60
1709.60 1709.00 1708.40 1707.80 1707.20 1706.60 1706.00 1705.40 1704.80 1704.20 1703.60 1703.00 1702.40 1701.80 1701.20 1700.60 1700.00 1699.40 1698.80 1698.20 1697.60 1697.00 1696.40 1695.80 1695.20 1694.60 1694.00 1693.40 1692.80 1692.20 1691.60 1691.00 1690.40 1689.80 1689.20 1688.60 1688.00 1687.40 1686.80 1686.20
1709.20 1708.60 1708.00 1707.40 1706.80 1706.20 1705.60 1705.00 1704.40 1703.80 1703.20 1702.60 1702.00 1701.40 1700.80 1700.20 1699.60 1699.00 1698.40 1697.80 1697.20 1696.60 1696.00 1695.40 1694.80 1694.20 1693.60 1693.00 1692.40 1691.80 1691.20 1690.60 1690.00 1689.40 1688.80 1688.20 1687.60 1687.00 1686.40 1685.80
1708.80 1708.20 1707.60 1707.00 1706.40 1705.80 1705.20 1704.60 1704.00 1703.40 1702.80 1702.20 1701.60 1701.00 1700.40 1699.80 1699.20 1698.60 1698.00 1697.40 1696.80 1696.20 1695.60 1695.00 1694.40 1693.80 1693.20 1692.60 1692.00 1691.40 1690.80 1690.20 1689.60 1689.00 1688.40 1687.80 1687.20 1686.60 1686.00 1685.40
1708.40 1707.80 1707.20 1706.60 1706.00 1705.40 1704.80 1704.20 1703.60 1703.00 1702.40 1701.80 1701.20 1700.60 1700.00 1699.40 1698.80 1698.20 1697.60 1697.00 1696.40 1695.80 1695.20 1694.60 1694.00 1693.40 1692.80 1692.20 1691.60 1691.00 1690.40 1689.80 1689.20 1688.60 1688.00 1687.40 1686.80 1686.20 1685.60 1685.00
1708.00 1707.40 1706.80 1706.20 1705.60 1705.00 1704.40 1703.80 1703.20 1702.60 1702.00 1701.40 1700.80 1700.20 1699.60 1699.00 1698.40 1697.80 1697.20 1696.60 1696.00 1695.40 1694.80 1694.20 1693.60 1693.00 1692.40 1691.80 1691.20 1690.60 1690.00 1689.40 1688.80 1688.20 1687.60 1687.00 1686.40 1685.80 1685.20 1684.60
1707.60 1707.00 1706.40 1705.80 1705.20 1704.60 1704.00 1703.40 1702.80 1702.20 1701.60 1701.00 1700.40 1699.80 1699.20 1698.60 1698.00 1697.40 1696.80 1696.20 1695.60 1695.00 1694.40 1693.80 1693.20 1692.60 1692.00 1691.40 1690.80 1690.20 1689.60 1689.00 1688.40 1687.80 1687.20 1686.60 1686.00 1685.40 1684.80 1684.20
1707.20 1706.60 1706.00 1705.40 1704.80 1704.20 1703.60 1703.00 1702.40 1701.80 1701.20 1700.60 1700.00 1699.40 1698.80 1698.20 1697.60 1697.00 1696.40 1695.80 1695.20 1694.60 1694.00 1693.40 1692.80 1692.20 1691.60 1691.00 1690.40 1689.80 1689.20 1688.60 1688.00 1687.40 1686.80 1686.20 1685.60 1685.00 1684.40 1683.80
1706.80 1706.20 1705.60 1705.00 1704.40 1703.80 1703.20 1702.60 1702.00 1701.40 1700.80 1700.20 1699.60 1699.00 1698.40 1697.80 1697.20 1696.60 1696.00 1695.40 1694.80 1694.20 1693.60 1693.00 1692.40 1691.80 1691.20 1690.60 1690.00 1689.40 1688.80 1688.20 1687.60 1687.00 1686.40 1685.80 1685.20 1684.60 1684.00 1683.40
1706.40 1705.80 1705.20 1704.60 1704.00 1703.40 1702.80 1702.20 1701.60 1701.00 1700.40 1699.80 1699.20 1698.60 1698.00 1697.40 1696.80 1696.20 1695.60 1695.00 1694.40 1693.80 1693.20 1692.60 1692.00 1691.40 1690.80 1690.20 1689.60 1689.00 1688.40 1687.80 1687.20 1686.60 1686.00 1685.40 1684.80 1684.20 1683.60 1683.00
1706.00 1705.40 1704.80 1704.20 1703.60 1703.00 1702.40 1701.80 1701.20 1700.60 1700.00 1699.40 1698.80 1698.20 1697.60 1697.00 1696.40 1695.80 1695.20 1694.60 1694.00 1693.40 1692.80 1692.20 1691.60 1691.00 1690.40 1689.80 1689.20 1688.60 1688.00 1687.40 1686.80 1686.20 1685.60 1685.00 1684.40 1683.80 1683.20 1682.60
1705.60 1705.00 1704.40 1703.80 1703.20 1702.60 1702.00 1701.40 1700.80 1700.20 1699.60 1699.00 1698.40 1697.80 1697.20 1696.60 1696.00 1695.40 1694.80 1694.20 1693.60 1693.00 1692.40 1691.80 1691.20 1690.60 1690.00 1689.40 1688.80 1688.20 1687.60 1687.00 1686.40 1685.80 1685.20 1684.60 1684.00 1683.40 1682.80 1682.20
1705.20 1704.60 1704.00 1703.40 1702.80 1702.20 1701.60 1701.00 1700.40 1699.80 1699.20 1698.60 1698.00 1697.40 1696.80 1696.20 1695.60 1695.00 1694.40 1693.80 1693.20 1692.60 1692.00 1691.40 1690.80 1690.20 1689.60 1689.00 1688.40 1687.80 1687.20 1686.60 1686.00 1685.40 1684.80 1684.20 1683.60 1683.00 1682.40 1681.80
1704.80 1704.20 1703.60 1703.00 1702.40 1701.80 1701.20 1700.60 1700.00 1699.40 1698.80 1698.20 1697.60 1697.00 1696.40 1695.80 1695.20 1694.60 1694.00 1693.40 1692.80 1692.20 1691.60 1691.00 1690.40 1689.80 1689.20 1688.60 1688.00 1687.40 1686.80 1686.20 1685.60 1685.00 1684.40 1683.80 1683.20 1682.60 1682.00 1681.40
1704.40 1703.80 1703.20 1702.60 1702.00 1701.40 1700.80 1700.20 1699.60 1699.00 1698.40 1697.80 1697.20 1696.60 1696.00 1695.40 1694.80 1694.20 1693.60 1693.00 1692.40 1691.80 1691.20 1690.60 1690.00 1689.40 1688.80 1688.20 1687.60 1687.00 1686.40 1685.80 1685.20 1684.60 1684.00 1683.40 1682.80 1682.20 1681.60 1681.00
1704.00 1703.40 1702.80 1702.20 1701.60 1701.00 1700.40 1699.80 1699.20 1698.60 1698.00 1697.40 1696.80 1696.20 1695.60 1695.00 1694.40 1693.80 1693.20 1692.60 1692.00 1691.40 1690.80 1690.20 1689.60 1689.00 1688.40 1687.80 1687.20 1686.60 1686.00 1685.40 1684.80 1684.20 1683.60 1683.00 1682.40 1681.80 1681.20 1680.60
1703.60 1703.00 1702.40 1701.80 1701.20 1700.60 1700.00 1699.40 1698.80 1698.20 1697.60 1697.00 1696.40 1695.80 1695.20 1694.60 1694.00 1693.40 1692.80 1692.20 1691.60 1691.00 1690.40 1689.80 1689.20 1688.60 1688.00 1687.40 1686.80 1686.20 1685.60 1685.00 1684.40 1683.80 1683.20 1682.60 1682.00 1681.40 1680.80 1680.20
1703.20 1702.60 1702.00 1701.40 1700.80 1700.20 1699.60 1699.00 1698.40 1697.80 1697.20 1696.60 1696.00 1695.40 1694.80 1694.20 1693.60 1693.00 1692.40 1691.80 1691.20 1690.60 1690.00 1689.40 1688.80 1688.20 1687.60 1687.00 1686.40 1685.80 1685.20 1684.60 1684.00 1683.40 1682.80 1682.20 1681.60 1681.00 1680.40 1679.80
1702.80 1702.20 1701.60 1701.00 1700.40 1699.80 1699.20 1698.60 1698.00 1697.40 1696.80 1696.20 1695.60 1695.00 1694.40 1693.80 1693.20 1692.60 1692.00 1691.40 1690.80 1690.20 1689.60 1689.00 1688.40 1687.80 1687.20 1686.60 1686.00 1685.40 1684.80 1684.20 1683.60 1683.00 1682.40 1681.80 1681.20 1680.60 1680.00 1679.40
1702.40 1701.80 1701.20 1700.60 1700.00 1699.40 1698.80 1698.20 1697.60 1697.00 1696.40 1695.80 1695.20 1694.60 1694.00 1693.40 1692.80 1692.20 1691.60 1691.00 1690.40 1689.80 1689.20 1688.60 1688.00 1687.40 1686.80 1686.20 1685.60 1685.00 1684.40 1683.80 1683.20 1682.60 1682.00 1681.40 1680.80 1680.20 1679.60 1679.00
1702.00 1701.40 1700.80 1700.20 1699.60 1699.00 1698.40 1697.80 1697.20 1696.60 1696.00 1695.40 1694.80 1694.20 1693.60 1693.00 1692.40 1691.80 1691.20 1690.60 1690.00 1689.40 1688.80 1688.20 1687.60 1687.00 1686.40 1685.80 1685.20 1684.60 1684.00 1683.40 1682.80 1682.20 1681.60 1681.00 1680.40 1679.80 1679.20 1678.60
1701.60 1701.00 1700.40 1699.80 1699.20 1698.60 1698.00 1697.40 1696.80 1696.20 1695.60 1695.00 1694.40 1693.80 1693.20 1692.60 1692.00 1691.40 1690.80 1690.20 1689.60 1689.00 1688.40 1687.80 1687.20 1686.60 1686.00 1685.40 1684.80 1684.20 1683.60 1683.00 1682.40 1681.80 1681.20 1680.60 1680.00 1679.40 1678.80 1678.20
1701.20 1700.60 1700.00 1699.40 1698.80 1698.20 1697.60 1697.00 1696.40 1695.80 1695.20 1694.60 1694.00 1693.40 1692.80 1692.20 1691.60 1691.00 1690.40 1689.80 1689.20 1688.60 1688.00 1687.40 1686.80 1686.20 1685.60 1685.00 1684.40 1683.80 1683.20 1682.60 1682.00 1681.40 1680.80 1680.20 1679.60 1679.00 1678.40 1677.80
1700.80 1700.20 1699.60 1699.00 1698.40 1697.80 1697.20 1696.60 1696.00 1695.40 1694.80 1694.20 1693.60 1693.00 1692.40 1691.80 1691.20 1690.60 1690.00 1689.40 1688.80 1688.20 1687.60 1687.00 1686.40 1685.80 1685.20 1684.60 1684.00 1683.40 1682.80 1682.20 1681.60 1681.00 1680.40 1679.80 1679.20 1678.60 1678.00 1677.40
1700.40 1699.80 1699.20 1698.60 1698.00 1697.40 1696.80 1696.20 1695.60 1695.00 1694.40 1693.80 1693.20 1692.60 1692.00 1691.40 1690.80 1690.20 1689.60 1689.00 1688.40 1687.80 1687.20 1686.60 1686.00 1685.40 1684.80 1684.20 1683.60 1683.00 1682.40 1681.80 1681.20 1680.60 1680.00 1679.40 1678.80 1678.20 1677.60 1677.00
1700.00 1699.40 1698.80 1698.20 1697.60 1697.00 1696.40 1695.80 1695.20 1694.60 1694.00 1693.40 1692.80 1692.20 1691.60 1691.00 1690.40 1689.80 1689.20 1688.60 1688.00 1687.40 1686.80 1686.20 1685.60 1685.00 1684.40 1683.80 1683.20 1682.60 1682.00 1681.40 1680.80 1680.20 1679.60 1679.00 1678.40 1677.80 1677.20 1676.60
1699.60 1699.00 1698.40 1697.80 1697.20 1696.60 1696.00 1695.40 1694.80 1694.20 1693.60 1693.00 1692.40 1691.80 1691.20 1690.60 1690.00 1689.40 1688.80 1688.20 1687.60 1687.00 1686.40 1685.80 1685.20 1684.60 1684.00 1683.40 1682.80 1682.20 1681.60 1681.00 1680.40 1679.80 1679.20 1678.60 1678.00 1677.40 1676.80 1676.20
1699.20 1698.60 1698.00 1697.40 1696.80 1696.20 1695.60 1695.00 1694.40 1693.80 1693.20 1692.60 1692.00 1691.40 1690.80 1690.20 1689.60 1689.00 1688.40 1687.80 1687.20 1686.60 1686.00 1685.40 1684.80 1684.20 1683.60 1683.00 1682.40 1681.80 1681.20 1680.60 1680.00 1679.40 1678.80 1678.20 1677.60 1677.00 1676.40 1675.80
1698.80 1698.20 1697.60 1697.00 1696.40 1695.80 1695.20 1694.60 1694.00 1693.40 1692.80 1692.20 1691.60 1691.00 1690.40 1689.80 1689.20 1688.60 1688.00 1687.40 1686.80 1686.20 1685.60 1685.00 1684.40 1683.80 1683.20 1682.60 1682.00 1681.40 1680.80 1680.20 1679.60 1679.00 1678.40 1677.80 1677.20 1676.60 1676.00 1675.40
1698.40 1697.80 1697.20 1696.60 1696.00 1695.40 1694.80 1694.20 1693.60 1693.00 1692.40 1691.80 1691.20 1690.60 1690.00 1689.40 1688.80 1688.20 1687.60 1687.00 1686.40 1685.80 1685.20 1684.60 1684.00 1683.40 1682.80 1682.20 1681.60 1681.00 1680.40 1679.80 1679.20 1678.60 1678.00 1677.40 1676.80 1676.20 1675.60 1675.00
1698.00 1697.40 1696.80 1696.20 1695.60 1695.00 1694.40 1693.80 1693.20 1692.60 1692.00 1691.40 1690.80 1690.20 1689.60 1689.00 1688.40 1687.80 1687.20 1686.60 1686.00 1685.40 1684.80 1684.20 1683.60 1683.00 1682.40 1681.80 1681.20 1680.60 1680.00 1679.40 1678.80 1678.20 1677.60 1677.00 1676.40 1675.80 1675.20 1674.60
1697.60 1697.00 1696.40 1695.80 1695.20 1694.60 1694.00 1693.40 1692.80 1692.20 1691.60 1691.00 1690.40 1689.80 1689.20 1688.60 1688.00 1687.40 1686.80 1686.20 1685.60 1685.00 1684.40 1683.80 1683.20 1682.60 1682.00 1681.40 1680.80 1680.20 1679.60 1679.00 1678.40 1677.80 1677.20 1676.60 1676.00 1675.40 1674.80 1674.20
1697.20 1696.60 1696.00 1695.40 1694.80 1694.20 1693.60 1693.00 1692.40 1691.80 1691.20 1690.60 1690.00 1689.40 1688.80 1688.20 1687.60 1687.00 1686.40 1685.80 1685.20 1684.60 1684.00 1683.40 1682.80 1682.20 1681.60 1681.00 1680.40 1679.80 1679.20 1678.60 1678.00 1677.40 1676.80 1676.20 1675.60 1675.00 1674.40 1673.80
1696.80 1696.20 1695.60 1695.00 1694.40 1693.80 1693.20 1692.60 1692.00 1691.40 1690.80 1690.20 1689.60 1689.00 1688.40 1687.80 1687.20 1686.60 1686.00 1685.40 1684.80 1684.20 1683.60 1683.00 1682.40 1681.80 1681.20 1680.60 1680.00 1679.40 1678.80 1678.20 1677.60 1677.00 1676.40 1675.80 1675.20 1674.60 1674.00 1673.40
1696.40 1695.80 1695.20 1694.60 1694.00 1693.40 1692.80 1692.20 1691.60 1691.00 1690.40 1689.80 1689.20 1688.60 1688.00 1687.40 1686.80 1686.20 1685.60 1685.00 1684.40 1683.80 1683.20 1682.60 1682.00 1681.40 1680.80 1680.20 1679.60 1679.00 1678.40 1677.80 1677.20 1676.60 1676.00 1675.40 1674.80 1674.20 1673.60 1673.00
1696.00 1695.40 1694.80 1694.20 1693.60 1693.00 1692.40 1691.80 1691.20 1690.60 1690.00 1689.40 1688.80 1688.20 1687.60 1687.00 1686.40 1685.80 1685.20 1684.60 1684.00 1683.40 1682.80 1682.20 1681.60 1681.00 1680.40 1679.80 1679.20 1678.60 1678.00 1677.40 1676.80 1676.20 1675.60 1675.00 1674.40 1673.80 1673.20 1672.60
1695.60 1695.00 1694.40 1693.80 1693.20 1692.60 1692.00 1691.40 1690.80 1690.20 1689.60 1689.00 1688.40 1687.80 1687.20 1686.60 1686.00 1685.40 1684.80 1684.20 1683.60 1683.00 1682.40 1681.80 1681.20 1680.60 1680.00 1679.40 1678.80 1678.20 1677.60 1677.00 1676.40 1675.80 1675.20 1674.60 1674.00 1673.40 1672.80 1672.20
1695.20 1694.60 1694.00 1693.40 1692.80 1692.20 1691.60 1691.00 1690.40 1689.80 1689.20 1688.60 1688.00 1687.40 1686.80 1686.20 1685.60 1685.00 1684.40 1683.80 1683.20 1682.60 1682.00 1681.40 1680.80 1680.20 1679.60 1679.00 1678.40 1677.80 1677.20 1676.60 1676.00 1675.40 1674.80 1674.20 1673.60 1673.00 1672.40 1671.80
1694.80 1694.20 1693.60 1693.00 1692.40 1691.80 1691.20 1690.60 1690.00 1689.40 1688.80 1688.20 1687.60 1687.00 1686.40 1685.80 1685.20 1684.60 1684.00 1683.40 1682.80 1682.20 1681.60 1681.00 1680.40 1679.80 1679.20 1678.60 1678.00 1677.40 1676.80 1676.20 1675.60 1675.00 1674.40 1673.80 1673.20 1672.60 1672.00 1671.40
1694.40 1693.80 1693.20 1692.60 1692.00 1691.40 1690.80 1690.20 1689.60 1689.00 1688.40 1687.80 1687.20 1686.60 1686.00 1685.40 1684.80 1684.20 1683.60 1683.00 1682.40 1681.80 1681.20 1680.60 1680.00 1679.40 1678.80 1678.20 1677.60 1677.00 1676.40 1675.80 1675.20 1674.60 1674.00 1673.40 1672.80 1672.20 1671.60 1671.00
